X: 18
T:Bass Rigadoon. TBe.018
M:6/8
L:1/8
Q:80
S:Thomas Bennet MS,1718, VWML
R:Rigadoon
O:England
H:1718
Z:vmp.C. Graebe..
K:F Major
c | A>GA B2 B, | c2C d2D | e>de fAB | c2CF2 ||\
g/f/ | e>de f2F |!
 g2G a2A | a>ga b2a | g>ag/f/ e>dc |\
def f2e | f3-f2 ||
